icon/pk/boxing.svg

<svg viewBox="0 0 48 48" fill="none" xmlns="http://www.w3.org/2000/svg" height="1em" width="1em">
  <path d="M38 36V42C38 43.1 37.11 44 36 44H17C15.9 44 15 43.11 15 42V36" stroke="black" stroke-width="4" stroke-miterlimit="2" stroke-linecap="round" stroke-linejoin="round"/>
  <path d="M11 15V10C11 6.68629 13.6863 4 17 4H28H38C41.3137 4 44 6.68629 44 10V30C44 33.3137 41.3198 36 38.006 36C30.9668 36 19.6598 36 15 36C8 36 4 28 4 23C4 18 4 15 4 15H11Z" fill="#2F88FF" stroke="black" stroke-width="4" stroke-miterlimit="2" stroke-linecap="round" stroke-linejoin="round"/>
  <line x1="11" y1="14" x2="11" y2="22" stroke="black" stroke-width="4" stroke-linecap="round"/>
</svg>

<svg width="48" height="48" fill="none" xmlns="http://www.w3.org/2000/svg"><path d="M38 36v6a2 2 0 0 1-2 2H17a2 2 0 0 1-2-2v-6" stroke="#000" stroke-width="4" stroke-miterlimit="2" stroke-linecap="round" stroke-linejoin="round"/><path d="M11 15v-5a6 6 0 0 1 6-6h21a6 6 0 0 1 6 6v20c0 3.314-2.68 6-5.994 6H15C8 36 4 28 4 23v-8h7Z" fill="#2F88FF" stroke="#000" stroke-width="4" stroke-miterlimit="2" stroke-linecap="round" stroke-linejoin="round"/><path stroke="#000" stroke-width="4" stroke-linecap="round" d="M11 14v8"/></svg>
